icons/translate.svg

<svg xmlns="http://www.w3.org/2000/svg" width="24" height="24" viewBox="0 0 24 24">
  <path d="M16.8307601,10.4425354 L16.8944272,10.5527864 L21.8944272,20.5527864 C22.1414164,21.0467649 21.9411921,21.6474379 21.4472136,21.8944272 C20.9885193,22.1237744 20.4378281,21.9675139 20.1637448,21.548514 L20.1055728,21.4472136 L18.882,19 L13.118,19 L11.8944272,21.4472136 C11.66508,21.9059079 11.1307708,22.1113142 10.6601042,21.9405643 L10.5527864,21.8944272 C10.0940921,21.66508 9.88868578,21.1307708 10.0594357,20.6601042 L10.1055728,20.5527864 L15.1055728,10.5527864 C15.4341641,9.89560381 16.3059803,9.82439207 16.7522983,10.3391512 L16.8307601,10.4425354 Z M9,2 C9.51283584,2 9.93550716,2.38604019 9.99327227,2.88337887 L10,3 L10,4 L15,4 C15.5522847,4 16,4.44771525 16,5 C16,5.51283584 15.6139598,5.93550716 15.1166211,5.99327227 L15,6 L13.57773,6.00088629 C13.0059851,8.66638555 11.8703009,11.142448 10.2874503,13.2845145 C10.4430138,13.4621184 10.6035082,13.6354215 10.7676631,13.8054694 C11.1512418,14.2028179 11.1400792,14.8358844 10.7427306,15.2194631 C10.3453821,15.6030418 9.71231556,15.5918792 9.32873688,15.1945306 L9.00013337,14.8459979 C7.43719164,16.5491045 5.56009563,17.9733848 3.44504385,19.0245088 C2.95046801,19.2702997 2.35028216,19.0686197 2.10449122,18.5740439 C1.85870029,18.079468 2.06038031,17.4792822 2.55495615,17.2334912 C4.53280074,16.2505555 6.27821015,14.9028191 7.71324336,13.2869629 C6.82351892,12.0822039 6.07597642,10.774448 5.49071035,9.38918491 C5.27576946,8.88044249 5.51394266,8.29378124 6.02268509,8.07884035 C6.53142751,7.86389946 7.11808876,8.10207266 7.33302965,8.61081509 C7.78423357,9.67876719 8.34343341,10.6954722 8.99958948,11.6459379 C10.1695209,9.95124408 11.0340833,8.04161398 11.526705,6.00047464 L3,6 C2.44771525,6 2,5.55228475 2,5 C2,4.48716416 2.38604019,4.06449284 2.88337887,4.00672773 L3,4 L8,4 L8,3 C8,2.44771525 8.44771525,2 9,2 Z M16,13.236 L14.118,17 L17.882,17 L16,13.236 Z"/>
</svg>

<svg xmlns="http://www.w3.org/2000/svg" viewBox="0 0 24 24">
  <path d="m16.83 10.44.06.11 5 10a1 1 0 0 1-1.73 1l-.05-.1L18.88 19h-5.76l-1.23 2.45a1 1 0 0 1-1.23.5l-.1-.06a1 1 0 0 1-.5-1.23l.05-.1 5-10a1 1 0 0 1 1.64-.22l.08.1zM9 2a1 1 0 0 1 1 .88V4h5a1 1 0 0 1 .12 2h-1.54a18.94 18.94 0 0 1-3.3 7.28l.49.53a1 1 0 1 1-1.44 1.38L9 14.85a19.04 19.04 0 0 1-5.55 4.17 1 1 0 0 1-.9-1.79 17.05 17.05 0 0 0 5.16-3.94 19.03 19.03 0 0 1-2.22-3.9 1 1 0 0 1 1.84-.78A16.96 16.96 0 0 0 9 11.65c1.17-1.7 2.03-3.6 2.53-5.65H3a1 1 0 0 1-.12-2H8V3a1 1 0 0 1 1-1zm7 11.24L14.12 17h3.76L16 13.24z"/>
</svg>
